resources/svg/major-point-of-sale.svg

<svg xmlns="http://www.w3.org/2000/svg" viewBox="0 0 20 20" fill="currentColor"><path fill-rule="evenodd" d="M3.945 2.438a.5.5 0 0 1 .496-.438h11.119a.5.5 0 0 1 .496.438l.875 7a.5.5 0 0 1-.496.562h-3.245c.198.576.577 1.269 1.24 2h4.07a1.5 1.5 0 0 1 1.5 1.5v3a1.5 1.5 0 0 1-1.5 1.5h-17a1.5 1.5 0 0 1-1.5-1.5v-3a1.5 1.5 0 0 1 1.5-1.5h4.072c.663-.731 1.041-1.424 1.24-2h-3.246a.5.5 0 0 1-.496-.562l.875-7zm1.32 5.562.5-4h8.47l.5 4h-9.47zm5.848 2a6.6 6.6 0 0 0 .824 2h-3.874a6.601 6.601 0 0 0 .824-2h2.226zm-1.113 4a1 1 0 1 0 0 2 1 1 0 0 0 0-2z"/></svg>

<svg xmlns="http://www.w3.org/2000/svg" viewBox="0 0 20 20" fill="currentColor"><path fill-rule="evenodd" d="M3.945 2.438A.5.5 0 014.441 2H15.56a.5.5 0 01.496.438l.875 7a.5.5 0 01-.496.562h-3.245c.198.576.577 1.269 1.24 2H18.5a1.5 1.5 0 011.5 1.5v3a1.5 1.5 0 01-1.5 1.5h-17A1.5 1.5 0 010 16.5v-3A1.5 1.5 0 011.5 12h4.072c.663-.731 1.041-1.424 1.24-2H3.566a.5.5 0 01-.496-.562l.875-7zM5.265 8l.5-4h8.47l.5 4h-9.47zm5.848 2a6.6 6.6 0 00.824 2H8.063a6.601 6.601 0 00.824-2h2.226zM10 14a1 1 0 100 2 1 1 0 000-2z" fill="#5C5F62"/></svg>
